Newaita-dark/actions/24/zoom-fit-height.svg

<svg height="24" viewBox="0 0 24 24" width="24" xmlns="http://www.w3.org/2000/svg"><g fill="#e0e0e0"><path d="m14.894531 7.621094c-.003906-.113282-.042969-.222656-.117187-.3125l-2.480469-2.976563c-.207031-.246093-.585937-.246093-.792969 0l-2.480468 2.976563c-.277344.335937-.039063.84375.394531.84375h4.964843c.289063 0 .519532-.238282.511719-.53125zm0 0"/><path d="m14.894531 16.566406c-.003906.117188-.042969.226563-.117187.316406l-2.480469 2.976563c-.207031.246094-.585937.246094-.792969 0l-2.480468-2.976563c-.277344-.335937-.039063-.84375.394531-.84375h4.964843c.289063 0 .519532.238282.511719.527344zm0 0"/><path d="m3.96875 2.171875c-1.097656 0-1.984375.886719-1.984375 1.984375v3.96875h1.984375v-2.976562c0-.550782.441406-.992188.992188-.992188h2.976562v-1.984375zm11.90625 0v1.984375h2.976562c.550782 0 .992188.441406.992188.992188v2.976562h1.988281v-3.96875c0-1.097656-.886719-1.984375-1.988281-1.984375zm-13.890625 13.890625v3.96875c0 1.101562.886719 1.988281 1.984375 1.988281h3.96875v-1.988281h-2.976562c-.550782 0-.992188-.441406-.992188-.992188v-2.976562zm17.859375 0v2.976562c0 .550782-.441406.992188-.992188.992188h-2.976562v1.988281h3.96875c1.101562 0 1.988281-.886719 1.988281-1.988281v-3.96875zm0 0"/></g></svg>

<?xml version="1.0" encoding="UTF-8"?>
<svg xmlns="http://www.w3.org/2000/svg" xmlns:xlink="http://www.w3.org/1999/xlink" width="24px" height="24px" viewBox="0 0 24 24" version="1.1">
<g id="surface1">
<path style=" stroke:none;fill-rule:nonzero;fill:rgb(87.843138%,87.843138%,87.843138%);fill-opacity:1;" d="M 14.894531 7.621094 C 14.890625 7.507812 14.851562 7.398438 14.777344 7.308594 L 12.296875 4.332031 C 12.089844 4.085938 11.710938 4.085938 11.503906 4.332031 L 9.023438 7.308594 C 8.746094 7.644531 8.984375 8.152344 9.417969 8.152344 L 14.382812 8.152344 C 14.671875 8.152344 14.902344 7.914062 14.894531 7.621094 Z M 14.894531 7.621094 "/>
<path style=" stroke:none;fill-rule:nonzero;fill:rgb(87.843138%,87.843138%,87.843138%);fill-opacity:1;" d="M 14.894531 16.566406 C 14.890625 16.683594 14.851562 16.792969 14.777344 16.882812 L 12.296875 19.859375 C 12.089844 20.105469 11.710938 20.105469 11.503906 19.859375 L 9.023438 16.882812 C 8.746094 16.546875 8.984375 16.039062 9.417969 16.039062 L 14.382812 16.039062 C 14.671875 16.039062 14.902344 16.277344 14.894531 16.566406 Z M 14.894531 16.566406 "/>
<path style=" stroke:none;fill-rule:nonzero;fill:rgb(87.843138%,87.843138%,87.843138%);fill-opacity:1;" d="M 3.96875 2.171875 C 2.871094 2.171875 1.984375 3.058594 1.984375 4.15625 L 1.984375 8.125 L 3.96875 8.125 L 3.96875 5.148438 C 3.96875 4.597656 4.410156 4.15625 4.960938 4.15625 L 7.9375 4.15625 L 7.9375 2.171875 Z M 15.875 2.171875 L 15.875 4.15625 L 18.851562 4.15625 C 19.402344 4.15625 19.84375 4.597656 19.84375 5.148438 L 19.84375 8.125 L 21.832031 8.125 L 21.832031 4.15625 C 21.832031 3.058594 20.945312 2.171875 19.84375 2.171875 Z M 1.984375 16.0625 L 1.984375 20.03125 C 1.984375 21.132812 2.871094 22.019531 3.96875 22.019531 L 7.9375 22.019531 L 7.9375 20.03125 L 4.960938 20.03125 C 4.410156 20.03125 3.96875 19.589844 3.96875 19.039062 L 3.96875 16.0625 Z M 19.84375 16.0625 L 19.84375 19.039062 C 19.84375 19.589844 19.402344 20.03125 18.851562 20.03125 L 15.875 20.03125 L 15.875 22.019531 L 19.84375 22.019531 C 20.945312 22.019531 21.832031 21.132812 21.832031 20.03125 L 21.832031 16.0625 Z M 19.84375 16.0625 "/>
</g>
</svg>
